packages/foundations/assets/icons/functional/images/editing/cross_12.svg

<svg width="12" height="12" viewBox="0 0 12 12" fill="none" xmlns="http://www.w3.org/2000/svg">
<g clip-path="url(#clip0_231_187)">
<path fill-rule="evenodd" clip-rule="evenodd" d="M2.39991 8.99988C2.39991 8.83102 2.45648 8.68102 2.56876 8.56873L5.13762 5.99988L2.56876 3.41216C2.51492 3.3579 2.4723 3.29356 2.44332 3.22282C2.41435 3.15208 2.3996 3.07632 2.39991 2.99988C2.39991 2.69988 2.64334 2.39988 2.99991 2.39988C3.14991 2.39988 3.29991 2.45645 3.41219 2.56873L5.99991 5.13759L8.58762 2.56873C8.64189 2.51489 8.70623 2.47227 8.77697 2.44329C8.84771 2.41432 8.92346 2.39957 8.99991 2.39988C9.31876 2.39988 9.59991 2.66216 9.59991 2.99988C9.59991 3.14988 9.54334 3.29988 9.43105 3.41216L6.86219 5.99988L9.43105 8.56873C9.48663 8.62563 9.53021 8.69311 9.55922 8.76717C9.58822 8.84124 9.60206 8.92037 9.59991 8.99988C9.59991 9.31873 9.33762 9.59988 8.99991 9.59988C8.9204 9.60203 8.84127 9.58819 8.76721 9.55919C8.69314 9.53018 8.62566 9.4866 8.56876 9.43102L5.99991 6.84331L3.43105 9.43188C3.37408 9.4873 3.30657 9.53073 3.23251 9.55958C3.15845 9.58844 3.07936 9.60214 2.99991 9.59988C2.84112 9.59875 2.68916 9.53518 2.57688 9.4229C2.4646 9.31062 2.40103 9.15866 2.39991 8.99988Z" fill="#1A1C1F"/>
</g>
<defs>
<clipPath id="clip0_231_187">
<rect width="12" height="12" fill="white"/>
</clipPath>
</defs>
</svg>

<svg xmlns="http://www.w3.org/2000/svg" width="12" height="12" fill="none"><g clip-path="url(#a)"><path fill="#1A1C1F" fill-rule="evenodd" d="M2.4 9c0-.169.056-.319.169-.431l2.569-2.57-2.57-2.587A.58.58 0 0 1 2.4 3c0-.3.243-.6.6-.6.15 0 .3.056.412.169L6 5.138l2.588-2.57A.58.58 0 0 1 9 2.4c.319 0 .6.262.6.6 0 .15-.057.3-.169.412L6.862 6l2.57 2.569a.6.6 0 0 1 .168.43c0 .32-.262.6-.6.6a.6.6 0 0 1-.431-.168l-2.57-2.588-2.568 2.589A.6.6 0 0 1 3 9.6a.604.604 0 0 1-.6-.6" clip-rule="evenodd"/></g><defs><clipPath id="a"><path fill="#fff" d="M0 0h12v12H0z"/></clipPath></defs></svg>
